X: 56
T:Fal lal la. JC.054
M:2/4
L:1/8
Q:160
S:John Clare,Poet,Helpston. (1793-1864)
R:Air
O:England
A:Northamptonshire
N:
Z:vmp.P. Headford
K:D
d|aa.f.f|.d.d (d/4e/4)f/z|.g.g.fz/d/|c3/4d/4e3/4f/4 ez/4e/4|!
.a.a.f.f|.d.d d/4(e/4f/)z|.g.g.fz/d/|!
e3/4d/4e3/4f/4 dz/a/|efga|efgb|afaz/a/|!
a((3a/b/g/) f((3f/g/e/)|dd (d/4e/4f/)z|.g.gfz/d/|e3/4d/4e3/4f/4 d|]
W:Song text exists.(or not). See Deacon.|
